X:421
T:Hey Ca' Through
B:Gatherer's Musical Museum (1987)
Z:Nigel Gatherer
M:9/8
L:1/8
K:D
d>ed A>BA F2 F | d2 d A>BA F F2 | G2 G F>GF E2 F | D2 F A>BA F2 F ||
G2 e F2 d E2 F | D2 F A>BA F3   | G2 e F2 d E2 F | D2 F A>BA F3   |]
<end>
<start>
